Papirus/24x24/panel/wire-tray-attention.svg

<?xml version="1.0" encoding="UTF-8" standalone="no"?>
<svg xmlns:dc="http://purl.org/dc/elements/1.1/" xmlns:cc="http://creativecommons.org/ns#" xmlns:rdf="http://www.w3.org/1999/02/22-rdf-syntax-ns#" xmlns:svg="http://www.w3.org/2000/svg" xmlns="http://www.w3.org/2000/svg" version="1.0" width="24" height="24" id="svg2817">
    <metadata id="metadata57">
        <rdf:RDF>
            <cc:Work rdf:about="">
                <dc:format>
                    image/svg+xml
                </dc:format>
                <dc:type rdf:resource="http://purl.org/dc/dcmitype/StillImage"/>
                <dc:title/>
            </cc:Work>
        </rdf:RDF>
    </metadata>
    <path id="rect4203-6-2" d="m 12,4 c -4.432,0 -8,3.568 -8,8 0,4.432 3.568,8 8,8 4.432,0 8,-3.568 8,-8 0,-4.432 -3.568,-8 -8,-8 z m -5,4 1,0 0,5.412109 c 0,0 -0.00159,0.358173 0.28125,0.751953 C 8.5640949,14.557844 9.1159656,15 10.5,15 c 0.1057,0 0.136176,-0.03608 0.232422,-0.04102 -0.0713,-0.07661 -0.206905,-0.131907 -0.263672,-0.210937 C 10.00159,14.097702 10,13.412109 10,13.412109 l 0,-4.339843 0.0039,-0.0293 c 0,0 0.02383,-0.144621 0.08398,-0.263672 C 10.14805,8.660243 10.251032,8.520719 10.408203,8.398435 10.722546,8.153868 11.222678,7.9887377 12.007813,8 c 0.7801,0.01119 1.26575,0.174702 1.576171,0.408203 0.155211,0.116751 0.260154,0.250978 0.322266,0.367188 0.06212,0.116209 0.08984,0.261718 0.08984,0.261718 l 0.0039,0.0332 0,4.341796 c 0,0 -0.0016,0.685583 -0.46875,1.335938 -0.05676,0.07903 -0.192373,0.134329 -0.263672,0.210937 C 13.363824,14.963923 13.3943,15 13.5,15 14.884034,15 15.435932,14.557835 15.71875,14.164062 16.0016,13.770291 16,13.412109 16,13.412109 L 16,8 l 1,0 0,5.412109 c 0,0 -0.0016,0.685575 -0.46875,1.335938 C 16.064141,15.398409 15.116057,16 13.5,16 12.877564,16 12.434918,15.852068 12,15.705078 11.565087,15.85207 11.122436,16 10.5,16 8.8839429,16 7.9358857,15.3984 7.46875,14.748047 7.00161,14.097694 7,13.412109 7,13.412109 L 7,8 Z m 4.992188,1 c -0.639046,-0.0092 -0.889112,0.125539 -0.96875,0.1875 -0.02172,0.0169 -0.01804,0.01642 -0.02344,0.02344 l 0,4.201171 c 0,0 -0.0016,0.358165 0.28125,0.751953 0.143433,0.199678 0.36351,0.409743 0.71875,0.570313 0.355228,-0.160568 0.575331,-0.37064 0.71875,-0.570313 C 13.00159,13.770283 13,13.412109 13,13.412109 l 0,-4.189453 c -0.0065,-0.0066 4.6e-5,-0.0019 -0.01563,-0.01367 C 12.900868,9.146169 12.636268,9.00924 11.992188,9 Z" style="opacity:1;fill:#ffffff;fill-opacity:1"/>
    <circle r="2" cy="18" cx="21" id="path4822" style="opacity:1;fill:#5294e2;fill-opacity:1;stroke:none;stroke-width:1;stroke-linecap:round;stroke-linejoin:round;stroke-miterlimit:4;stroke-dasharray:none;stroke-opacity:1"/>
</svg>

<?xml version="1.0" encoding="UTF-8" standalone="no"?>
<svg id="svg2817" xmlns:rdf="http://www.w3.org/1999/02/22-rdf-syntax-ns#" xmlns="http://www.w3.org/2000/svg" height="24" width="24" version="1.0" xmlns:cc="http://creativecommons.org/ns#" xmlns:dc="http://purl.org/dc/elements/1.1/">
 <metadata id="metadata57">
  <rdf:RDF>
   <cc:Work rdf:about="">
    <dc:format>image/svg+xml</dc:format>
    <dc:type rdf:resource="http://purl.org/dc/dcmitype/StillImage"/>
    <dc:title/>
   </cc:Work>
  </rdf:RDF>
 </metadata>
 <path id="rect4203-6-2" d="m12 4c-4.432 0-8 3.568-8 8s3.568 8 8 8 8-3.568 8-8-3.568-8-8-8zm-5 4h1v5.4121s-0.00159 0.35817 0.28125 0.75195c0.2829 0.394 0.8348 0.836 2.2188 0.836 0.1057 0 0.13618-0.03608 0.23242-0.04102-0.0713-0.07661-0.2069-0.13191-0.26367-0.21094-0.467-0.65-0.469-1.336-0.469-1.336v-4.3398l0.0039-0.0293s0.02383-0.14462 0.08398-0.26367c0.06-0.119 0.163-0.2585 0.32-0.3808 0.315-0.2445 0.815-0.4097 1.6-0.3984 0.7801 0.01119 1.2658 0.1747 1.5762 0.4082 0.15521 0.11675 0.26015 0.25098 0.32227 0.36719s0.08984 0.26172 0.08984 0.26172l0.0039 0.0332v4.3418s-0.0016 0.68558-0.46875 1.3359c-0.05676 0.07903-0.19237 0.13433-0.26367 0.21094 0.096 0.005 0.126 0.041 0.232 0.041 1.384 0 1.936-0.442 2.219-0.836s0.281-0.752 0.281-0.752v-5.412h1v5.4121s-0.0016 0.68558-0.46875 1.3359c-0.467 0.65-1.415 1.252-3.031 1.252-0.622 0-1.065-0.148-1.5-0.295-0.435 0.147-0.878 0.295-1.5 0.295-1.6161 0-2.5641-0.602-3.0312-1.252-0.4672-0.65-0.4688-1.336-0.4688-1.336v-5.412zm4.9922 1c-0.63905-0.0092-0.88911 0.12554-0.96875 0.1875-0.02172 0.0169-0.01804 0.01642-0.02344 0.02344v4.2012s-0.0016 0.35816 0.28125 0.75195c0.14343 0.19968 0.36351 0.40974 0.71875 0.57031 0.35523-0.16057 0.57533-0.37064 0.71875-0.57031 0.283-0.394 0.281-0.752 0.281-0.752v-4.1895c-0.0065-0.0066 0.000046-0.0019-0.01563-0.01367-0.083-0.0626-0.348-0.1996-0.992-0.2088z" fill="#fff"/>
 <circle id="path4822" cy="18" cx="21" r="2" fill="#5294e2"/>
</svg>
